X:1
T:Title
%%score { ( 1 4 ) | ( 2 3 ) }
L:1/8
M:6/4
K:Ab
V:1 treble nm="Grand Piano"
V:4 treble 
V:2 bass 
V:3 bass 
V:1
 z6 z4[Q:1/4=100] [CE]2 | [Ec]2 [DB]2 [Ec]2 [Fd]2 [Ec]2 [DB]2 | [CA]6 [CE]4 [CE]2 | %3
 [A,DF]2 [G,D=E]2 [A,DF]2 .[B,=DA]4 [B,DA]2 |[M:5/4] B2- B2- B6 |[M:1/4] E2 | %6
[M:6/4] [Ec]2 [=D_c]2 [E=c]2 [_Ge]2 [Gf]2 [Ge]2 | [Fd]6 F4 F2 | E2 =D2 E2 G2 A2 [_DEB]2 | %9
[M:5/4] [CEA]2- [CEA]2- [CEA]6 |[M:1/4] A2 |[M:6/4] B2 E2 F2 G2 A2 B2 | [Ec]6 [CEA]4 c2 | %13
 d2 e2 d2 c2 d2 c2 |[M:5/4] B2- B2- B6 |[M:1/4] E2 | %16
[M:6/4] [Ec]2 [=D_c]2 [E=c]2 [_Ge]2 [Gf]2 [Ge]2 | [Fd]6 F4 F2 | E2 =D2 E2 G2 A2 [_DEB]2 | %19
[M:9/4] [CEA]12 z6 |] %20
V:2
 z6 z4 [A,,A,]2 | [A,,A,]2 [A,,A,]2 [A,,A,]2 [A,,A,]2 [A,,A,]2 [A,,E,]2 | %2
 [A,,E,]6 [A,,A,]4 [A,,A,]2 | D,2 D,2 D,2 z2 G2 B,,2 |[M:5/4] [E,G,E]2- [E,G,E]2- [E,G,E]6 | %5
[M:1/4] [E,G,]2 |[M:6/4] [A,,A,]2 [A,,A,]2 [A,,A,]2 [C,A,]2 [C,A,]2 [C,A,]2 | %7
 [D,A,]6 [D,A,D]4 [D,A,D]2 | z6 .B,6 |[M:5/4] A,,2- A,,2- A,,6 |[M:1/4] [A,CE]2 | %11
[M:6/4] [E,G,E]2 [E,G,]2 [E,A,=D]2 [E,B,_D]2 [E,A,C]2 [E,G,E]2 | [A,,A,]6 A,,4 [A,E]2 | %13
 [G,B,E]2 [G,B,E]2 [G,B,E]2 [A,E]2 [G,B,E]2 [A,E]2 |[M:5/4] [E,G,E]4 [F,A,]2 [G,B,]4 | %15
[M:1/4] [E,G,]2 |[M:6/4] [A,,A,]2 [A,,A,]2 [A,,A,]2 [C,A,]2 [C,A,]2 [C,A,]2 | %17
 [D,A,]6 [D,A,D]4 [D,A,D]2 | z6 .B,6 |[M:9/4] A,,12 z6 |] %20
V:3
 x12 | x12 | x12 | z6 .B,,6 |[M:5/4] x10 |[M:1/4] x2 |[M:6/4] x12 | x12 | %8
 [E,A,C]2 [E,A,_C]2 [E,A,=C]2 [E,E]2- [E,CE]2 E,2 |[M:5/4] x10 |[M:1/4] x2 |[M:6/4] x12 | x12 | %13
 x12 |[M:5/4] x10 |[M:1/4] x2 |[M:6/4] x12 | x12 | %18
 [E,A,C]2 [E,A,_C]2 [E,A,=C]2 [E,E]2- [E,CE]2 E,2 |[M:9/4] x18 |] %20
V:4
 x12 | x12 | x12 | x12 |[M:5/4] x10 |[M:1/4] x2 |[M:6/4] x12 | x12 | x12 |[M:5/4] x10 |[M:1/4] x2 | %11
[M:6/4] x12 | x12 | x12 |[M:5/4] z4 =D2 _D4 |[M:1/4] x2 |[M:6/4] x12 | x12 | x12 |[M:9/4] x18 |] %20

